X: 36560
T: Sevens
R: reel
M: 4/4
K: Edorian
|:E2FE GEAE|B2AG FGB,D|C2DA, EA,FA,|G2FE DEB,D|
[1 E2FE GEAE|B2AG FGB,D|C2DA, EA,FA,|G2FE DEB,D:|
[2 EB,B,F B,B,GB,|AB,B,G B,B,FD|CA,A,D A,A,EA,|GA,A,F A,A,ED||
EBeB EBeB|EBeB cAec|DAdA DAdA|DAdA GFED|
EBeB EBeB|EBeB cAec|Adfd AdfA|Bfdf BfdD||

